src/assets/svg/telescope-hover.svg

<svg width="30" height="30" viewBox="0 0 30 30" fill="none" xmlns="http://www.w3.org/2000/svg">
<rect opacity="0.2" width="30" height="30" rx="3" fill="#95959D"/>
<path d="M22.044 8.3429C22.0068 8.1988 21.9079 8.07794 21.7737 8.01287C21.6396 7.94712 21.4836 7.9438 21.3468 8.00291L18.4229 9.29518C18.2084 9.3928 18.0896 9.62455 18.1341 9.85631L10.5179 11.9301C10.3871 11.966 10.2755 12.0523 10.2084 12.1705C10.142 12.2887 10.1248 12.4282 10.1613 12.559L10.1952 12.6613L9.19243 12.9336L9.19177 12.9329C8.99321 12.986 8.84512 13.154 8.8179 13.3579L7.7813 13.6302C7.64981 13.666 7.53891 13.7524 7.47184 13.8706C7.40477 13.9888 7.38751 14.1282 7.42403 14.2591L7.9679 16.2479C8.02899 16.4697 8.23087 16.6231 8.46129 16.6224H8.59742L9.61742 16.3501L9.77015 16.469C9.84785 16.5135 9.93551 16.5374 10.0252 16.5374H10.1613L11.164 16.2651L11.1979 16.3674C11.259 16.5885 11.4609 16.7419 11.6913 16.7413H11.8274L15.0574 15.8574L15.0567 18.2374L12.3201 22.4701L13.1701 23.0139L15.5501 19.3251L17.9301 23.0139L18.7801 22.4701L16.0601 18.2374V15.5512L19.4263 14.6335V14.6328C19.4973 14.8354 19.6879 14.9708 19.9017 14.9728H19.9695L23.1483 14.599H23.149C23.2964 14.5804 23.4279 14.498 23.5095 14.3739C23.5912 14.2497 23.6151 14.0963 23.574 13.9528L22.044 8.3429Z" fill="white"/>
</svg>

<!-- Generated by IcoMoon.io -->
<svg version="1.1" xmlns="http://www.w3.org/2000/svg" width="30" height="30" viewBox="0 0 30 30">
<title>telescope-hover</title>
<path fill="#95959d" opacity="0.2" d="M3 0h24c1.657 0 3 1.343 3 3v24c0 1.657-1.343 3-3 3h-24c-1.657 0-3-1.343-3-3v-24c0-1.657 1.343-3 3-3z"></path>
<path fill="#fff" d="M22.044 8.343c-0.037-0.144-0.136-0.265-0.27-0.33s-0.29-0.069-0.427-0.010l-2.924 1.292c-0.215 0.098-0.333 0.329-0.289 0.561l-7.616 2.074c-0.131 0.036-0.242 0.122-0.309 0.24s-0.084 0.258-0.047 0.389l0.034 0.102-1.003 0.272c-0.199 0.053-0.347 0.221-0.374 0.425l-1.037 0.272c-0.131 0.036-0.242 0.122-0.309 0.24s-0.084 0.258-0.048 0.389l0.544 1.989c0.061 0.222 0.263 0.375 0.493 0.375h0.136l1.020-0.272 0.153 0.119c0.078 0.045 0.165 0.068 0.255 0.068h0.136l1.003-0.272 0.034 0.102c0.061 0.221 0.263 0.375 0.493 0.374h0.136l3.23-0.884-0.001 2.38-2.737 4.233 0.85 0.544 2.38-3.689 2.38 3.689 0.85-0.544-2.72-4.233v-2.686l3.366-0.918c0.071 0.203 0.262 0.338 0.475 0.34h0.068l3.18-0.374c0.147-0.019 0.279-0.101 0.36-0.225s0.106-0.278 0.065-0.421l-1.53-5.61z"></path>
</svg>
